src/images_karasa_jaga_svg/cmd/32/calloutshapes.round-callout.svg

<svg height="32" viewBox="0 0 32 32" width="32" xmlns="http://www.w3.org/2000/svg" xmlns:xlink="http://www.w3.org/1999/xlink"><linearGradient id="a" gradientUnits="userSpaceOnUse" x1="62.413773" x2="62.611889" y1="127.99999" y2="0"><stop offset="0" stop-color="#fff"/><stop offset=".58341646" stop-color="#fff"/><stop offset=".80479258" stop-color="#f1f1f1"/><stop offset=".86852741" stop-color="#eaeaea"/><stop offset="1" stop-color="#dfdfdf"/></linearGradient><linearGradient id="b" gradientUnits="userSpaceOnUse" x1=".876951" x2="127.12305" y1="64.000008" y2="64.000008"><stop offset="0" stop-color="#7c9fcf"/><stop offset=".5" stop-color="#7c9ece"/><stop offset="1" stop-color="#7b9dcf"/></linearGradient><g transform="scale(.25)"><path d="m64.000001 11.408811c-16.135082.000038-32.191238 4.191083-43.939453 11.710937-11.7482153 7.519854-19.18366155 18.606311-19.18359399 30.185547a4.1478537 4.1478537 0 0 0 0 .0098c.0176121 8.292117 3.81054189 16.43305 10.32421899 23.027343 5.388667 5.45536 12.673564 9.852905 20.96289 13.050781l-14.34375 20.689451a4.1478537 4.1478537 0 0 0 5.939454 5.64843l27.800781-21.429711c4.092287.552772 8.250408.887556 12.425781.90039a4.1478537 4.1478537 0 0 0 .01367 0c16.135082-.000038 32.191239-4.191084 43.939451-11.710937 11.74822-7.519854 19.18366-18.606311 19.1836-30.185547.00006-11.579236-7.43538-22.665693-19.1836-30.185547-11.74821-7.519854-27.804367-11.710899-43.939449-11.710937z" fill="url(#b)"/><path d="m64.000001 15.555295a58.97678 37.749859 0 0 0 -58.9765626 37.75 58.97678 37.749859 0 0 0 33.6132816 34.029297l-17.408203 25.111328 29.132812-22.457031a58.97678 37.749859 0 0 0 13.638672 1.066406 58.97678 37.749859 0 0 0 58.976559-37.75 58.97678 37.749859 0 0 0 -58.976559-37.75z" fill="url(#a)"/></g></svg>

<?xml version="1.0" encoding="UTF-8" standalone="no"?>
<!-- Created with Inkscape (http://www.inkscape.org/) -->

<svg
   xmlns:dc="http://purl.org/dc/elements/1.1/"
   xmlns:cc="http://creativecommons.org/ns#"
   xmlns:rdf="http://www.w3.org/1999/02/22-rdf-syntax-ns#"
   xmlns:svg="http://www.w3.org/2000/svg"
   xmlns="http://www.w3.org/2000/svg"
   xmlns:xlink="http://www.w3.org/1999/xlink"
   xmlns:sodipodi="http://sodipodi.sourceforge.net/DTD/sodipodi-0.dtd"
   xmlns:inkscape="http://www.inkscape.org/namespaces/inkscape"
   version="1.1"
   id="svg2"
   width="128"
   height="128"
   viewBox="0 0 128 128"
   sodipodi:docname="calloutshapes.round-callout.svg"
   inkscape:export-filename="/home/rizmut/Dokumen/Rizmut/Github/libreoffice-style-karasa-jaga/build/images_karasa_jaga/cmd/32/calloutshapes.round-callout.png"
   inkscape:export-xdpi="24"
   inkscape:export-ydpi="24"
   inkscape:version="0.92.3 (unknown)">
  <metadata
     id="metadata8">
    <rdf:RDF>
      <cc:Work
         rdf:about="">
        <dc:format>image/svg+xml</dc:format>
        <dc:type
           rdf:resource="http://purl.org/dc/dcmitype/StillImage" />
        <dc:title />
      </cc:Work>
    </rdf:RDF>
  </metadata>
  <defs
     id="defs6">
    <linearGradient
       inkscape:collect="always"
       id="linearGradient825">
      <stop
         style="stop-color:#f9f9fa;stop-opacity:1;"
         offset="0"
         id="stop821" />
      <stop
         style="stop-color:#f9f9fa;stop-opacity:0;"
         offset="1"
         id="stop823" />
    </linearGradient>
    <linearGradient
       inkscape:collect="always"
       xlink:href="#linearGradient825"
       id="linearGradient1536"
       x1="70.052383"
       y1="-18.468208"
       x2="62.030193"
       y2="84.412926"
       gradientUnits="userSpaceOnUse" />
    <linearGradient
       id="linearGradient3369">
      <stop
         id="stop3372"
         offset="0"
         style="stop-color:#ffffff;stop-opacity:1;" />
      <stop
         style="stop-color:#ffffff;stop-opacity:1;"
         offset="0.58341646"
         id="stop3374" />
      <stop
         style="stop-color:#f1f1f1;stop-opacity:1;"
         offset="0.80479258"
         id="stop3376" />
      <stop
         id="stop3378"
         offset="0.86852741"
         style="stop-color:#eaeaea;stop-opacity:1;" />
      <stop
         id="stop3384"
         offset="1"
         style="stop-color:#dfdfdf;stop-opacity:1;" />
    </linearGradient>
    <linearGradient
       id="linearGradient7422">
      <stop
         style="stop-color:#7c9fcf;stop-opacity:1"
         offset="0"
         id="stop7424" />
      <stop
         id="stop5348"
         offset="0.5"
         style="stop-color:#7c9ece;stop-opacity:1" />
      <stop
         id="stop7426"
         offset="1"
         style="stop-color:#7b9dcf;stop-opacity:1" />
    </linearGradient>
    <linearGradient
       inkscape:collect="always"
       xlink:href="#linearGradient3369"
       id="linearGradient8528"
       x1="62.413773"
       y1="130.48962"
       x2="62.611889"
       y2="2.4896266"
       gradientUnits="userSpaceOnUse"
       gradientTransform="translate(8.8695291e-7,-2.4896267)" />
    <linearGradient
       inkscape:collect="always"
       xlink:href="#linearGradient7422"
       id="linearGradient8616"
       x1="0.8769502"
       y1="66.489632"
       x2="127.12305"
       y2="66.489632"
       gradientUnits="userSpaceOnUse"
       gradientTransform="translate(8.8695291e-7,-2.4896267)" />
  </defs>
  <sodipodi:namedview
     pagecolor="#ffffff"
     bordercolor="#666666"
     borderopacity="1"
     objecttolerance="10"
     gridtolerance="10"
     guidetolerance="10"
     inkscape:pageopacity="0"
     inkscape:pageshadow="2"
     inkscape:window-width="1366"
     inkscape:window-height="706"
     id="namedview4"
     showgrid="false"
     inkscape:snap-page="true"
     inkscape:snap-global="true"
     inkscape:zoom="1"
     inkscape:cx="-48.454428"
     inkscape:cy="32.644097"
     inkscape:window-x="0"
     inkscape:window-y="0"
     inkscape:window-maximized="1"
     inkscape:current-layer="svg2" />
  <path
     id="circle1528"
     style="opacity:1;fill:url(#linearGradient1536);fill-opacity:1;stroke:none;stroke-width:3.85701394;stroke-linecap:round;stroke-linejoin:bevel;stroke-miterlimit:4;stroke-dasharray:none;stroke-dashoffset:0;stroke-opacity:0.73039216"
     r="42.122112"
     cy="64"
     cx="64" />
  <path
     style="opacity:1;fill:url(#linearGradient8616);fill-opacity:1;stroke:none;stroke-width:5.29160166;stroke-linecap:square;stroke-linejoin:bevel;stroke-miterlimit:4;stroke-dasharray:none;stroke-dashoffset:0;stroke-opacity:0.73039216"
     d="M 64.000001,11.408811 C 47.864919,11.408849 31.808763,15.599894 20.060548,23.119748 8.3123327,30.639602 0.87688645,41.726059 0.87695401,53.305295 a 4.1478537,4.1478537 0 0 0 0,0.0098 c 0.0176121,8.292117 3.81054189,16.43305 10.32421899,23.027343 5.388667,5.45536 12.673564,9.852905 20.96289,13.050781 l -14.34375,20.689451 a 4.1478537,4.1478537 0 0 0 5.939454,5.64843 L 51.560548,94.301389 c 4.092287,0.552772 8.250408,0.887556 12.425781,0.90039 a 4.1478537,4.1478537 0 0 0 0.01367,0 c 16.135082,-3.8e-5 32.191239,-4.191084 43.939451,-11.710937 11.74822,-7.519854 19.18366,-18.606311 19.1836,-30.185547 6e-5,-11.579236 -7.43538,-22.665693 -19.1836,-30.185547 C 96.19124,15.599894 80.135083,11.408849 64.000001,11.408811 Z"
     id="path8605"
     inkscape:connector-curvature="0" />
  <path
     style="opacity:1;fill:url(#linearGradient8528);fill-opacity:1;stroke:none;stroke-width:5.29160166;stroke-linecap:square;stroke-linejoin:bevel;stroke-miterlimit:4;stroke-dasharray:none;stroke-dashoffset:0;stroke-opacity:0.73039216"
     d="M 64.000001,15.555295 A 58.97678,37.749859 0 0 0 5.0234384,53.305295 58.97678,37.749859 0 0 0 38.63672,87.334592 L 21.228517,112.44592 50.361329,89.988889 a 58.97678,37.749859 0 0 0 13.638672,1.066406 58.97678,37.749859 0 0 0 58.976559,-37.75 58.97678,37.749859 0 0 0 -58.976559,-37.75 z"
     id="rect8502"
     inkscape:connector-curvature="0" />
</svg>
